projects/plugins/jetpack/images/recommendations/bug-icon.svg

<svg fill="none" height="56" viewBox="0 0 56 56" width="56" xmlns="http://www.w3.org/2000/svg"><path clip-rule="evenodd" d="m18.1304 51 21.1428-46.8861-2.4036-1.1139-3.3341 7.3937c-1.8092-.94328-3.861-1.47572-6.0355-1.47572-2.8053 0-5.4065.88619-7.5459 2.39752l-5.1664-5.23747-2.8032 2.84172 5.0909 5.16095c-1.4935 1.9406-2.4713 4.3091-2.7244 6.8937h-5.351v4.0188h5.2857v4.0188h-5.2857v4.0188h5.55c.6631 3.3112 2.5308 6.1789 5.1193 8.1124l-3.9425 8.7429zm3.2388-13.6265c-1.9132-1.718-3.1192-4.2271-3.1192-7.0219v-8.0376c0-5.1789 4.1414-9.3772 9.25-9.3772 1.5864 0 3.0796.4049 4.3845 1.1182zm14.999-17.7345 2.138-4.7413c1.1651 1.7735 1.9242 3.8445 2.1428 6.0767h5.351v4.0188h-5.2857v4.0188h5.2857v4.0188h-5.55c-1.2244 6.1146-6.557 10.7169-12.95 10.7169-.6587 0-1.3061-.0489-1.9389-.1432l1.7486-3.8776c.0633.0013.1267.0019.1903.0019 5.1086 0 9.25-4.1983 9.25-9.3772v-8.0376c0-.9295-.1334-1.8273-.3818-2.675z" fill="#fff" fill-rule="evenodd"/></svg>

<svg width="56" height="56" viewBox="0 0 56 56" fill="none" xmlns="http://www.w3.org/2000/svg">
	<path fill-rule="evenodd" clip-rule="evenodd" d="M18.1304 51L39.2732 4.1139L36.8696 3L33.5355 10.3937C31.7263 9.45042 29.6745 8.91798 27.5 8.91798C24.6947 8.91798 22.0935 9.80417 19.9541 11.3155L14.7877 6.07803L11.9845 8.91975L17.0754 14.0807C15.5819 16.0213 14.6041 18.3898 14.351 20.9744H9V24.9932H14.2857V29.012H9V33.0308H14.55C15.2131 36.342 17.0808 39.2097 19.6693 41.1432L15.7268 49.8861L18.1304 51ZM21.3692 37.3735C19.456 35.6555 18.25 33.1464 18.25 30.3516V22.314C18.25 17.1351 22.3914 12.9368 27.5 12.9368C29.0864 12.9368 30.5796 13.3417 31.8845 14.055L21.3692 37.3735ZM36.3682 19.639L38.5062 14.8977C39.6713 16.6712 40.4304 18.7422 40.649 20.9744H46V24.9932H40.7143V29.012H46V33.0308H40.45C39.2256 39.1454 33.893 43.7477 27.5 43.7477C26.8413 43.7477 26.1939 43.6988 25.5611 43.6045L27.3097 39.7269C27.373 39.7282 27.4364 39.7288 27.5 39.7288C32.6086 39.7288 36.75 35.5305 36.75 30.3516V22.314C36.75 21.3845 36.6166 20.4867 36.3682 19.639Z" fill="white"/>
</svg>
